Papirus-GTK/48x48/apps/trimage.svg

<svg height="48" viewBox="0 0 48 48.000001" width="48" xmlns="http://www.w3.org/2000/svg"><g transform="translate(0 -1004.3622)"><path d="m36.903957 1015.0436c-12.273612 6.2318-19.972319 15.8188-26.869301 25.9918 3.209974 1.3338 7.370938 2.6983 11.676551 3.8905 7.907985-4.1735 15.683633-8.5101 18.976703-18.3617-1.152574-4.1981-2.475958-8.2809-3.783953-11.5221z" fill="#9cc7f4"/><path d="m32.341362 1008.3672c-5.433567.4569-29.4222007 24.6442-28.30348 28.8347.2846814 1.0599 2.6159906 2.4229 5.995235 3.8274l26.869301-25.9919c-1.501886-3.7228-2.971458-6.3364-4.096333-6.6364-.135416-.035-.290837-.048-.466262-.032z" fill="#63a8d3"/><path d="m40.68791 1026.5658l-18.976703 18.3617c9.668393 2.6782 20.004634 4.4488 21.651169 2.7936 1.624992-1.626-.06925-11.6376-2.680621-21.1553z" fill="#cde4fd"/><path d="m32.339844 4.0058594c-5.436878.4618134-29.4213384 24.6439226-28.3027346 28.8339846.0091496.034065.0393879.070784.0527344.105468 1.471399-5.941307 23.1179152-27.5035413 28.2500002-27.9394526v.0078125h.001953c.174529-.016.329991-.0017969.464844.0332031 1.124875.3 2.593817 2.9139187 4.095703 6.636719l-.015625.015625c.00604 0 .011578-.009766.017578-.009766 1.307784 3.241 2.63082 7.322131 3.783203 11.519531 0 0-.001953 0-.001953 0h-.001953c1.823935 6.648819 3.196934 13.528436 3.30664 17.63086.125382-3.909031-1.325052-11.407323-3.30664-18.63086.000469-.001402.001484-.002503.001953-.003906 0 0 .001953-.001953.001953-.001953 0 0 0-.001953 0-.001953-1.152383-4.197405-2.475419-8.278589-3.783203-11.519531-.006045.003069-.011536.006694-.017578.009765l.015625-.015625c-1.501886-3.7227996-2.970828-6.3367185-4.095703-6.6367185-.134853-.0348543-.290315-.0488962-.464844-.0332031z" fill="#fff" opacity=".2" transform="translate(0 1004.3622)"/><path d="m4.0898438 31.945312c-.0874747.353034-.1154679.659545-.0527344.894532.2846814 1.0599 2.6168494 2.423625 5.9960936 3.828125l.017578-.017578c-.00527.007771-.010356.015665-.015625.023437 3.209974 1.3338 7.370169 2.698425 11.675782 3.890625 9.668393 2.6782 20.005808 4.450122 21.652343 2.794922.489498-.489802.674261-1.750487.626953-3.519531-.03979 1.240519-.235574 2.127924-.626953 2.519531-1.646535 1.6552-11.98395-.116722-21.652343-2.794922-4.305613-1.1922-8.465808-2.556825-11.675782-3.890625.00527-.007.010325-.013437.015625-.023437l-.017578.017578c-3.2702166-1.359186-5.5410135-2.678247-5.9433592-3.722657z" opacity=".3" transform="translate(0 1004.3622)"/></g></svg>

<?xml version="1.0" encoding="UTF-8" standalone="no"?>
<!-- Created with Inkscape (http://www.inkscape.org/) -->

<svg
   xmlns:dc="http://purl.org/dc/elements/1.1/"
   xmlns:cc="http://creativecommons.org/ns#"
   xmlns:rdf="http://www.w3.org/1999/02/22-rdf-syntax-ns#"
   xmlns:svg="http://www.w3.org/2000/svg"
   xmlns="http://www.w3.org/2000/svg"
   xmlns:sodipodi="http://sodipodi.sourceforge.net/DTD/sodipodi-0.dtd"
   xmlns:inkscape="http://www.inkscape.org/namespaces/inkscape"
   width="48"
   height="48"
   viewBox="0 0 48 48.000001"
   id="svg4190"
   version="1.1"
   inkscape:version="0.91 r13725"
   sodipodi:docname="trimage.svg">
  <defs
     id="defs4192" />
  <sodipodi:namedview
     id="base"
     pagecolor="#585858"
     bordercolor="#666666"
     borderopacity="1.0"
     inkscape:pageopacity="0"
     inkscape:pageshadow="2"
     inkscape:zoom="1"
     inkscape:cx="1.5347092"
     inkscape:cy="23.102542"
     inkscape:document-units="px"
     inkscape:current-layer="layer1"
     showgrid="false"
     units="px"
     inkscape:window-width="1600"
     inkscape:window-height="849"
     inkscape:window-x="0"
     inkscape:window-y="0"
     inkscape:window-maximized="1" />
  <metadata
     id="metadata4195">
    <rdf:RDF>
      <cc:Work
         rdf:about="">
        <dc:format>image/svg+xml</dc:format>
        <dc:type
           rdf:resource="http://purl.org/dc/dcmitype/StillImage" />
        <dc:title></dc:title>
      </cc:Work>
    </rdf:RDF>
  </metadata>
  <g
     inkscape:label="Layer 1"
     inkscape:groupmode="layer"
     id="layer1"
     transform="translate(0,-1004.3622)">
    <path
       inkscape:connector-curvature="0"
       d="m 36.903957,1015.0436 c -12.273612,6.2318 -19.972319,15.8188 -26.869301,25.9918 3.209974,1.3338 7.370938,2.6983 11.676551,3.8905 7.907985,-4.1735 15.683633,-8.5101 18.976703,-18.3617 -1.152574,-4.1981 -2.475958,-8.2809 -3.783953,-11.5221 z"
       style="opacity:1;fill:#9cc7f4;fill-opacity:1;stroke:none"
       id="path37" />
    <path
       inkscape:connector-curvature="0"
       d="m 32.341362,1008.3672 c -5.433567,0.4569 -29.4222007,24.6442 -28.30348,28.8347 0.2846814,1.0599 2.6159906,2.4229 5.995235,3.8274 l 26.869301,-25.9919 c -1.501886,-3.7228 -2.971458,-6.3364 -4.096333,-6.6364 -0.135416,-0.035 -0.290837,-0.048 -0.466262,-0.032 z"
       style="opacity:1;fill:#63a8d3;fill-opacity:1;stroke:none"
       id="path39" />
    <path
       inkscape:connector-curvature="0"
       d="m 40.68791,1026.5658 -18.976703,18.3617 c 9.668393,2.6782 20.004634,4.4488 21.651169,2.7936 1.624992,-1.626 -0.06925,-11.6376 -2.680621,-21.1553 z"
       style="opacity:1;fill:#cde4fd;fill-opacity:1;stroke:none"
       id="path41" />
    <path
       style="opacity:0.2;fill:#ffffff;fill-opacity:1;stroke:none"
       d="M 32.339844 4.0058594 C 26.902966 4.4676728 2.9185056 28.649782 4.0371094 32.839844 C 4.046259 32.873909 4.0764973 32.910628 4.0898438 32.945312 C 5.5612428 27.004005 27.207759 5.4417707 32.339844 5.0058594 L 32.339844 5.0136719 L 32.341797 5.0136719 C 32.516326 4.9976719 32.671788 5.011875 32.806641 5.046875 C 33.931516 5.346875 35.400458 7.9607937 36.902344 11.683594 L 36.886719 11.699219 C 36.892759 11.699219 36.898297 11.689453 36.904297 11.689453 C 38.212081 14.930453 39.535117 19.011584 40.6875 23.208984 C 40.6875 23.208984 40.685547 23.208984 40.685547 23.208984 L 40.683594 23.208984 C 42.507529 29.857803 43.880528 36.73742 43.990234 40.839844 C 44.115616 36.930813 42.665182 29.432521 40.683594 22.208984 C 40.684063 22.207582 40.685078 22.206481 40.685547 22.205078 C 40.685547 22.205078 40.6875 22.203125 40.6875 22.203125 C 40.6875 22.203125 40.6875 22.201172 40.6875 22.201172 C 39.535117 18.003767 38.212081 13.922583 36.904297 10.681641 C 36.898252 10.68471 36.892761 10.688335 36.886719 10.691406 L 36.902344 10.675781 C 35.400458 6.9529814 33.931516 4.3390625 32.806641 4.0390625 C 32.671788 4.0042082 32.516326 3.9901663 32.341797 4.0058594 L 32.339844 4.0058594 z "
       transform="translate(0,1004.3622)"
       id="path4753" />
    <path
       style="opacity:0.3;fill:#000000;fill-opacity:1;stroke:none"
       d="M 4.0898438 31.945312 C 4.0023691 32.298346 3.9743759 32.604857 4.0371094 32.839844 C 4.3217908 33.899744 6.6539588 35.263469 10.033203 36.667969 L 10.050781 36.650391 C 10.045511 36.658162 10.040425 36.666056 10.035156 36.673828 C 13.24513 38.007628 17.405325 39.372253 21.710938 40.564453 C 31.379331 43.242653 41.716746 45.014575 43.363281 43.359375 C 43.852779 42.869573 44.037542 41.608888 43.990234 39.839844 C 43.950444 41.080363 43.75466 41.967768 43.363281 42.359375 C 41.716746 44.014575 31.379331 42.242653 21.710938 39.564453 C 17.405325 38.372253 13.24513 37.007628 10.035156 35.673828 C 10.040426 35.666828 10.045481 35.660391 10.050781 35.650391 L 10.033203 35.667969 C 6.7629864 34.308783 4.4921895 32.989722 4.0898438 31.945312 z "
       transform="translate(0,1004.3622)"
       id="path4763" />
  </g>
</svg>
